flaticon/interaction/image-17.svg

<svg xmlns="http://www.w3.org/2000/svg" width="32" height="32" viewBox="0 0 24 24">
    <path d="M21.929688 14.21875L21.929688 13.242188 22.34375 13.242188C22.574219 13.242188 22.757812 13.054688 22.757812 12.828125 22.757812 12.597656 22.574219 12.414062 22.34375 12.414062L14.898438 12.414062C14.667969 12.414062 14.484375 12.597656 14.484375 12.828125 14.484375 13.054688 14.667969 13.242188 14.898438 13.242188L15.308594 13.242188 15.308594 14.21875C15.308594 15.679688 16.074219 17.011719 17.308594 17.792969 16.074219 18.574219 15.308594 19.90625 15.308594 21.367188L15.308594 22.34375 14.898438 22.34375C14.667969 22.34375 14.484375 22.53125 14.484375 22.757812 14.484375 22.988281 14.667969 23.171875 14.898438 23.171875L22.34375 23.171875C22.574219 23.171875 22.757812 22.988281 22.757812 22.757812 22.757812 22.53125 22.574219 22.34375 22.34375 22.34375L21.929688 22.34375 21.929688 21.367188C21.929688 19.90625 21.167969 18.574219 19.933594 17.792969 21.167969 17.011719 21.929688 15.679688 21.929688 14.21875zM21.101562 21.367188L21.101562 22.34375 16.136719 22.34375 16.136719 21.367188C16.136719 19.996094 16.980469 18.761719 18.289062 18.207031L18.953125 18.207031C20.261719 18.761719 21.101562 19.996094 21.101562 21.367188zM18.953125 17.378906L18.289062 17.378906C16.980469 16.824219 16.136719 15.589844 16.136719 14.21875L16.136719 13.242188 21.101562 13.242188 21.101562 14.21875C21.101562 15.589844 20.261719 16.824219 18.953125 17.378906zM8.511719 5.613281C8.511719 4.34375 7.476562 3.308594 6.207031 3.308594 4.9375 3.308594 3.902344 4.34375 3.902344 5.613281 3.902344 6.886719 4.9375 7.917969 6.207031 7.917969 7.476562 7.917969 8.511719 6.886719 8.511719 5.613281zM4.730469 5.613281C4.730469 4.800781 5.390625 4.136719 6.207031 4.136719 7.019531 4.136719 7.683594 4.800781 7.683594 5.613281 7.683594 6.429688 7.019531 7.089844 6.207031 7.089844 5.390625 7.089844 4.730469 6.429688 4.730469 5.613281zM4.730469 5.613281"/>
    <path d="M 20.824219 11.0625 C 20.992188 11.21875 21.253906 11.207031 21.410156 11.039062 C 21.5625 10.871094 21.550781 10.609375 21.382812 10.453125 L 16.417969 5.902344 C 16.335938 5.828125 16.226562 5.785156 16.121094 5.792969 C 16.007812 5.796875 15.90625 5.847656 15.832031 5.925781 L 11.78125 10.367188 L 9.816406 8.402344 C 9.664062 8.25 9.414062 8.242188 9.25 8.386719 L 2.210938 14.585938 C 2.039062 14.738281 2.019531 15 2.171875 15.171875 C 2.253906 15.261719 2.367188 15.308594 2.484375 15.308594 C 2.578125 15.308594 2.675781 15.277344 2.757812 15.207031 L 9.507812 9.265625 L 12.535156 12.292969 C 12.695312 12.453125 12.957031 12.453125 13.121094 12.292969 C 13.28125 12.128906 13.28125 11.871094 13.121094 11.707031 L 12.363281 10.953125 L 16.164062 6.792969 Z M 20.824219 11.0625"/>
    <path d="M 23.585938 0.828125 L 0.414062 0.828125 C 0.183594 0.828125 0 1.011719 0 1.242188 L 0 19.449219 C 0 19.675781 0.183594 19.863281 0.414062 19.863281 L 13.242188 19.863281 C 13.46875 19.863281 13.65625 19.675781 13.65625 19.449219 C 13.65625 19.21875 13.46875 19.035156 13.242188 19.035156 L 0.828125 19.035156 L 0.828125 1.65625 L 23.171875 1.65625 L 23.171875 12 C 23.171875 12.230469 23.355469 12.414062 23.585938 12.414062 C 23.816406 12.414062 24 12.230469 24 12 L 24 1.242188 C 24 1.011719 23.816406 0.828125 23.585938 0.828125 Z M 23.585938 0.828125"/>
</svg>

<svg xmlns="http://www.w3.org/2000/svg" width="32" height="32" viewBox="0 0 24 24">
    <path d="M21.93 14.219v-.977h.414a.414.414 0 0 0 0-.828h-7.446a.414.414 0 0 0 0 .828h.41v.977c0 1.46.766 2.793 2 3.574-1.234.781-2 2.113-2 3.574v.977h-.41a.414.414 0 0 0 0 .828h7.446a.414.414 0 0 0 0-.828h-.414v-.977c0-1.46-.762-2.793-1.996-3.574 1.234-.781 1.996-2.113 1.996-3.574zm-.828 7.148v.977h-4.965v-.977c0-1.37.843-2.605 2.152-3.16h.664c1.309.555 2.149 1.79 2.149 3.16zm-2.149-3.988h-.664c-1.309-.555-2.152-1.79-2.152-3.16v-.977h4.965v.977c0 1.37-.84 2.605-2.149 3.16zm0 0M8.512 5.613A2.309 2.309 0 0 0 6.207 3.31a2.309 2.309 0 0 0-2.305 2.304 2.306 2.306 0 0 0 2.305 2.305 2.306 2.306 0 0 0 2.305-2.305zm-3.782 0c0-.812.66-1.476 1.477-1.476a1.48 1.48 0 0 1 1.477 1.476c0 .817-.664 1.477-1.477 1.477-.816 0-1.477-.66-1.477-1.477zm0 0"/>
    <path d="M20.824 11.063c.168.156.43.144.586-.024a.418.418 0 0 0-.027-.586l-4.965-4.55a.418.418 0 0 0-.586.023l-4.05 4.441-1.966-1.965a.416.416 0 0 0-.566-.015l-7.04 6.199a.415.415 0 0 0-.038.586.42.42 0 0 0 .586.035l6.75-5.941 3.027 3.027c.16.16.422.16.586 0a.417.417 0 0 0 0-.586l-.758-.754 3.801-4.16zm0 0"/>
    <path d="M23.586.828H.414A.412.412 0 0 0 0 1.242V19.45c0 .227.184.414.414.414h12.828a.414.414 0 0 0 0-.828H.828V1.656h22.344V12c0 .23.183.414.414.414.23 0 .414-.184.414-.414V1.242a.412.412 0 0 0-.414-.414zm0 0"/>
</svg>
